src/assets/logo.svg

<svg xmlns="http://www.w3.org/2000/svg" width="20" height="20" viewBox="0 0 20 20" fill="none">
  <path d="M13.4574 15.6109L12.2781 17.6014C11.2526 19.3322 8.7473 19.3326 7.7221 17.6015L6.54288 15.611C6.01711 14.7239 5.2768 13.9836 4.38969 13.4578L2.39861 12.278C0.667826 11.2525 0.667864 8.7475 2.39868 7.72196L4.3895 6.54239C5.27663 6.01659 6.01696 5.27626 6.54276 4.38913L7.72233 2.39831C8.74729 0.667496 11.2523 0.667458 12.2781 2.39854L13.4576 4.38932C13.9833 5.27643 14.724 6.01703 15.6111 6.5428L17.6013 7.72173C19.3321 8.74722 19.3323 11.2525 17.6015 12.278L15.6107 13.4576C14.7235 13.9834 13.9832 14.7238 13.4574 15.6109Z" fill="#A7F3D0" stroke="#A7F3D0" stroke-opacity="0.3" stroke-linecap="round" stroke-linejoin="round"/>
  <path d="M6.1071 12.0443V8.09253H7.92577C8.6154 8.09253 9.10974 8.59106 9.10974 9.27806C9.10974 9.83738 8.78629 10.263 8.29195 10.4089L9.20739 12.0443H8.59709L7.74269 10.4575H6.61975V12.0443H6.1071ZM6.61975 9.98329H7.87695C8.27974 9.98329 8.57268 9.69147 8.57268 9.28414C8.57268 8.8768 8.29195 8.5789 7.90136 8.5789H6.61975V9.98329Z" fill="black"/>
  <path d="M9.98561 12.0929C9.7598 12.0929 9.59502 11.9227 9.59502 11.6917C9.59502 11.4606 9.7598 11.2904 9.98561 11.2904C10.2114 11.2904 10.3762 11.4606 10.3762 11.6917C10.3762 11.9227 10.2114 12.0929 9.98561 12.0929Z" fill="black"/>
  <path d="M12.4524 12.1172C11.5552 12.1172 10.89 11.5822 10.8412 10.804L11.4027 10.6581C11.4271 11.2175 11.8604 11.6187 12.4646 11.6187C12.9528 11.6187 13.3312 11.3512 13.3312 10.9743C13.3312 10.0319 11.0121 10.3177 11.0121 9.05311C11.0121 8.42083 11.598 8.01957 12.3425 8.01957C13.0993 8.01957 13.673 8.44515 13.7462 9.07743L13.1847 9.2355C13.1359 8.82208 12.7941 8.50594 12.3059 8.50594C11.9153 8.50594 11.5736 8.71265 11.5736 9.02879C11.5736 9.85562 13.8927 9.61244 13.8927 10.9743C13.8927 11.6491 13.3129 12.1172 12.4524 12.1172Z" fill="black"/>
</svg>

<svg xmlns="http://www.w3.org/2000/svg" width="20" height="20" fill="none">
    <path d="m13.457 15.61-1.179 1.991c-1.025 1.731-3.53 1.732-4.556 0l-1.18-1.99a6.145 6.145 0 0 0-2.152-2.153l-1.991-1.18c-1.731-1.026-1.731-3.53 0-4.556l1.99-1.18A6.145 6.145 0 0 0 6.543 4.39l1.18-1.99c1.024-1.732 3.53-1.732 4.555 0l1.18 1.99a6.145 6.145 0 0 0 2.153 2.154l1.99 1.179c1.731 1.025 1.731 3.53 0 4.556l-1.99 1.18a6.145 6.145 0 0 0-2.154 2.153Z" fill="#A7F3D0" stroke="#A7F3D0" stroke-opacity=".3" stroke-linecap="round" stroke-linejoin="round"/>
    <path d="M6.107 12.044V8.093h1.819c.69 0 1.184.498 1.184 1.185 0 .56-.324.985-.818 1.13l.915 1.636h-.61l-.854-1.587H6.62v1.587h-.513Zm.513-2.06h1.257a.674.674 0 0 0 .696-.7c0-.407-.281-.705-.672-.705H6.62v1.404ZM9.986 12.093a.384.384 0 0 1-.391-.401c0-.231.165-.402.39-.402.226 0 .391.17.391.402a.384.384 0 0 1-.39.4ZM12.452 12.117c-.897 0-1.562-.535-1.61-1.313l.56-.146c.025.56.458.96 1.063.96.488 0 .866-.267.866-.644 0-.942-2.319-.656-2.319-1.92 0-.633.586-1.034 1.33-1.034.757 0 1.331.425 1.404 1.057l-.561.159c-.05-.414-.39-.73-.88-.73-.39 0-.731.207-.731.523 0 .827 2.319.583 2.319 1.945 0 .675-.58 1.143-1.44 1.143Z" fill="#000"/>
</svg>
